X: 1843
T: The Merry Merchant
M:C
L:1/8
B:O'Neill's 1843
Z:"collected by F. O'Neill"
Z:should bars 4 and 8 of B part be "FDEC D2"?
Z:"Transcribed by Bob Safranek, rjs@gsp.org"
K:D
(AG) | Addc ABAG | Addc TB2 (AG) | Addc ABAF | GFGA TB2 (AG) |
       Addc ABAG | Addc TB2 (AG) | Addc ABAF | GFGA TB2     ||
(Bd) | cAAF GFGA | FDDG TB2 (Bd) | cAAF GFGA | FDED  D2 (Bd) |
       cAAF GFGA | FDDG TB2 (Bd) | cAAF GFGA | FDED  D2     |]


